X:1
T:Haec dies a 4 - Palestrina
T:James Gibb editions
T:#
%%score [ 1 2 3 4 ]
L:1/8
Q:1/4=216
M:none
K:C
V:1 treble nm="Soprano" snm="S"
V:2 treble nm="Alto" snm="A"
V:3 treble-8 nm="Tenor" snm="T"
V:4 bass nm="Bass" snm="B"
V:1
"^Haec dies""^G. P. da Palestrina\n(1526-94)" z16 | z16 | z16 | z16 | z16 | z16 | z16 | z16 | %8
w: ||||||||
 z8 e8- | e8 (d8 | f8) e8- | e4 d4 e4 c4 | d4 e4 (A6 B2 | c4 B4) (A2 B2 c2 d2 | e2 f2 e6 d2 d4- | %15
w: Haec|* di\-|* es|* quam fe- cit|Do- mi- nus, *|* * Do\- * * *||
 d4 c2) B2 c8 | z8 z4 d4 | (c2 B2 c2 d2 e6 d2 | B2 c2 d6 c2 c2 BA | B8 c8- | c4) B4 (A8 | %21
w: * * mi- nus,|quam|fe\- * * * * *|||* cit Do\-|
 _B4) A4 A8- | A8 z8 | e16 | (d8 f8) | e12 d4 | e4 c4 d4 e4 | (A2 B2 c2 d2 e4 d2 c2 | B4 A4 B8 | %29
w: * mi- nus,||haec|di\- *|es quam|fe- cit Do- mi-|nus, * * * * * *||
 A16) | z4 A4 (_B6 A2 | F4) G4 (A6 B2 | c2 d2 e8 d4- | d4) ^c4 d8- | d8 z8 | z16 | z4 A8 A4 | %37
w: |quam fe\- *|* cit Do\- *||* mi- nus:|||ex- ul-|
 (c2 B2 c2 d2 e4 f4- | f2 e2 e8 d4) | e16 | z16 | z16 | z4 e8 f4 | d4 e4 (A2 B2 c2 d2 | %44
w: te\- * * * * *||mus|||et lae-|te- mur in * * *|
 e2 f2 e6 d2 c4) | B8 A8- | A8 z8 | z16 | z4 e8 f4 | d4 e4 (A6 B2 | c4 d4 e8) | (f12 e2 d2 | %52
w: |e- a,|||et lae-|te- mur in *||e\- * *|
 e4 f4 e6 dc | B4 A4 B8) | A8 z4 A4- | A4 A4 (c2 B2 c2 d2 | e4 d2 c2) B8 | z4 A8 A4 | %58
w: ||a, ex\-|* ul- te\- * * *|* * * mus,|ex- ul-|
 (c2 B2 c2 d2 e4 f4- | f2 ed e8 d4 | e6 d2 c2 B2 A4- | A2 G2 F4 E8) | D8 z8 | z8 d8 | c4 A4 c4 c4 | %65
w: te\- * * * * *||||mus|et|lae- te- mur in|
 B8 A8- | A8 z8 | z16 | z4 e8 f4 | d4 e4 (A2 B2 c2 d2 | e6 d2 c4 B2 A2 | B4) (c6 B2 A4- | %72
w: e- a,|||et lae-|te- mur in * * *||* e\- * *|
 A4 ^G4) A8- | A16[Q:1/4=214][Q:1/4=212][Q:1/4=210] | %74
w: * * a.||
[Q:1/4=209] A16[Q:1/4=208][Q:1/4=207][Q:1/4=206][Q:1/4=204][Q:1/4=202] | %75
w: |
[Q:1/4=201] A16[Q:1/4=199][Q:1/4=196][Q:1/4=194] |[Q:1/4=192] A16[Q:1/4=188] |[Q:1/4=183] A16 |] %78
w: |||
V:2
 z16 | z16 | z16 | z16 | A16 | (G8 _B8) | A12 G4 | A4 F4 G4 A4 | (D2 E2 F2 G2 A8) | %9
w: ||||Haec|di\- *|es quam|fe- cit Do- mi-|nus, * * * *|
 z4 E4 (F2 E2 F2 G2 | A16) | G8 (c6 A2 | B4 c6 B2 A4- | A4 G4 c6 B2 | A4 G4 F4) F4 | E8 z8 | %16
w: quam fe\- * * *||cit Do\- *|||* * * mi-|nus,|
 z4 G4 (F2 E2 F2 G2 | A6 B2 c6 B2 | G2 A2 B8 A4- | A4 ^G4) A4 (A,2 B,2 | C2 D2 E6 C2 F4 | %21
w: quam fe\- * * *|||* * cit Do\- *||
 E4) E4 D8 | z8 A8- | A8 (G8 | _B8) A8- | A4 G4 A4 F4 | G4 A4 D4 A4 | c4 A4 (c4 B2 A2 | G4 A8 G4 | %29
w: * mi- nus,|haec|* di\-|* es|* quam fe- cit|Do- mi- nus, quam|fe- cit Do\- * *||
 F4) F4 E8 | E8 (G6 FE | D2 C2 D4) C4 c4- | c4 B4 A8 | z8 z4 D4- | D4 D4 (F2 E2 F2 G2 | A8) E8 | %36
w: * mi- nus,|quam fe\- * *|* * * cit Do\-|* mi- nus:|ex\-|* ul- te\- * * *|* mus,|
 z8 z4 A4- | A4 A4 (c2 B2 A2 G2 | A2 G2 G2 FE F8) | E16- | E8 z8 | z8 z4 A4- | A4 G4 c4 A4 | %43
w: ex-|* ul- te\- * * *||mus||et|* lae- te- mur|
 B4 (c6 B2 A4- | A4 G2 F2 G4 A4- | A4 ^G4) A4 E4- | E4 C4 F8 | E4 E4 A8- | A8 A8 | z8 z4 A4- | %50
w: in e\- * *||* * a, et|* lae- te-|mur in e\-|* a,|et|
 A4 _B4 G4 A4 | (D2 E2 F2 G2 A2 B2 c4- | c2 B2 A6 G2 E2 F2 | G4) (A8 G4 | A6 G2 F8- | F8) E8 | %56
w: * lae- te- mur|in * * * * * *||* e\- *||* a,|
 z8 z4 D4- | D4 D4 (F2 E2 F2 G2 | A6 B2 c4 A4- | A2 G2 E4 F8) | E8 z8 | z16 | z4 A8 _B4 | %63
w: ex\-|* ul- te\- * * *|||mus||et lae-|
 G4 A4 (D2 E2 F2 G2 | A2 B2 c6 B2) (A4- | A4 ^G4) A4 (A,2 B,2 | C2 D2 E4 C4) D4 | E8 A8- | %68
w: te- mur in * * *|* * * * e\-|* * a, et *|* * * * lae-|te- mur|
 A8 (A6 G2 | F4 E4) (F8 | E4 G4 A8 | G8) (C6 D2 | E8) z4 E4- | E4 F4 D4 E4 | %74
w: * in *|* * e\-||* a, *|* et|* lae- te- mur|
 (A,2 B,2 C2 D2 E4) (F4- | F4 E4 D6 E2 | F8) E8- | E16 |] %78
w: in * * * * e\-||* a.||
V:3
 z8 e8- | e8 (d8 | f8) e8- | e4 d4 e4 c4 | (d6 e2 f4 e4- | e4 d2 c2 d4) e4 | (f12 e2 d2 | %7
w: Haec|* di\-|* es|* quam fe- cit|Do\- * * *|* * * * mi-|nus, * *|
 c4 d4 e4 (f4- | f2 e2) d8 ^c2 B2) | ^c8 d8 | z4 A4 (=c2 B2 c2 d2 | e2 f2 g6 e2) f4- | %12
w: * quam fe- cit|* * Do\- * *|mi- nus,|quam fe\- * * *|* * * * cit|
 f4 (e6 dc d4 | e4 e4 (A6 B2 | c8 d8) | z8 e8- | e8 d8 | f8) e8- | e4 d4 e4 c4 | %19
w: * Do\- * * *|* mi- nus, *||haec|* di\-|* es|* quam fe- cit|
 d4 e4 (A2 B2 c2 d2 | e2 f2 g4) c4 (d4- | d4 ^c4) d4 (f4- | f4 e2 d2 e4) f4 | (e4 c4 e6 f2 | %24
w: Do- mi- nus, * * *|* * * quam fe\-|* * cit Do\-|* * * * mi-|nus, * * *|
 g8 d8) | z16 | z16 | z8 z4 d4 | e4 c4 d4 e4 | A4 (d8 c2 B2 | c4) c4 d8 | z4 d4 (e4 c2 d2 | %32
w: |||quam|fe- cit Do- mi-|nus, Do\- * *|* mi- nus,|quam fe\- * *|
 e2 f2) g4 c4 d4 | (e8 d8) | z8 z4 A4- | A4 A4 (c2 B2 c2 d2 | e4 f8 e2 d2 | e8) A8 | z16 | %39
w: * * cit Do- mi-|nus: *|ex\-|* ul- te\- * * *||* mus,||
 z4 A8 A4 | (c2 B2 c2 d2 e4 f4- | f2 e2 e8 d4) | e8 z8 | z16 | z4 e8 f4 | d4 e4 (A2 B2 c2 d2 | %46
w: ex- ul-|te\- * * * * *||mus,||et lae-|te- mur in * * *|
 e2 f2 e8) (d4- | d4 ^c4) d4 A4 | (=c6 d2 e4 d4- | d4 ^c4) d8 | z16 | z8 z4 A4- | %52
w: * * * e\-|* * a, in|e\- * * *|* * a,||ex\-|
 A4 A4 (c2 B2 c2 d2 | e4 f4 e8 | f6 e2 d8) | c8 z4 e4- | e4 f4 (g8 | f6 e2 d2 c2 d4) | A8 z8 | %59
w: * ul- te\- * * *|||mus, ex\-|* ul- te\-||mus,|
 A12 A4 | (c2 B2 c2 d2 e4 f4 | e4 d8 ^c4) | d16- | d16 | z4 e8 f4 | d4 e4 (A2 B2 c2 d2 | %66
w: ex- ul-|te\- * * * * *||mus||et lae-|te- mur in * * *|
 e4 c4 e4 d4- | d4 c4) f8 | e8 z8 | z16 | z4 e8 f4 | d4 e4 (A2 B2 c2 A2) | B8 A8- | A8 z4 (e4 | %74
w: |* * e-|a,||et lae-|te- mur in * * *|e- a,|* et|
 f4) e4 c8 | d4 e4 (f6 e2 | d8) ^c8- | c16 |] %78
w: * lae- te-|mur in e\- *|* a.||
V:4
 A,16 | (G,8 _B,8) | A,12 G,4 | A,4 F,4 G,4 A,4 | (D,2 E,2 F,2 G,2 A,2 B,2 C4- | C4 =B,2 A,2 G,8) | %6
w: Haec|di\- *|es quam|fe- cit Do- mi-|nus, * * * * * *||
 (F,6 G,2 A,2 =B,2 C4) | A,4 _B,4 G,4 F,4 | _B,8 A,8- | A,8 z4 (D,4- | D,2 E,2 F,2 G,2 A,6 B,2) | %11
w: quam * * * *|fe- cit Do- mi-|nus, *|* quam||
 (C4 B,4 A,8 | G,4) E,4 F,4 F,4 | E,8 z8 | z16 | A,16 | (G,8 _B,8) | A,16 | z16 | z16 | %20
w: fe\- * *|* cit Do- mi-|nus,||haec|di\- *|es|||
 z4 G,4 A,4 F,4 | G,4 A,4 D,4 (D4- | D4 C2 B,2 C4) D4 | (A,6 B,2 C8 | G,8) z8 | z16 | z16 | z16 | %28
w: quam fe- cit|Do- mi- nus, Do\-|* * * * mi-|nus, * *|||||
 z16 | z8 A,8- | A,8 (G,8 | _B,8) A,8- | A,4 G,4 A,4 F,4 | G,4 A,4 D,8 | z4 D,8 D,4 | %35
w: |haec|* di\-|* es|* quam fe- cit|Do- mi- nus:|ex- ul-|
 (F,2 E,2 F,2 G,2 A,6 B,2 | C4 D8 C2 B,2 | A,8) A,4 F,4 | C8 D8 | A,8 z4 A,4- | %40
w: te\- * * * * *||* mus, ex-|ul- te-|mus, ex\-|
 A,4 A,4 (C2 B,2 A,2 G,2 | A,2 G,2 G,2 F,E, F,8) | E,8 z8 | z16 | z16 | z16 | A,12 _B,4 | %47
w: * ul- te\- * * *||mus,||||et lae-|
 G,4 A,4 (D,2 E,2 F,2 G,2 | A,2 B,2 A,6 G,2 F,4) | (G,4 E,4) D,8 | z16 | z16 | z16 | z16 | %54
w: te- mur in * * *||e\- * a,|||||
 z4 D,8 D,4 | (F,2 E,2 F,2 G,2 A,6 B,2 | C4 D4 G,8) | D,16 | z4 (A,6 G,2 F,2 E,2 | D,4) C,4 D,8 | %60
w: ex- ul-|te\- * * * * *||mus,|ex\- * * *|* ul- te-|
 A,8 z4 A,4- | A,4 _B,4 G,4 A,4 | (D,6 E,2 F,4 G,4- | G,4 F,4) _B,8 | A,16 | z16 | A,12 _B,4 | %67
w: mus et|* lae- te- mur|in * * *|* * e-|a,||et lae-|
 G,4 A,4 (D,2 E,2 F,2 G,2 | A,6 B,2 C4) (D4- | D4 C4) D4 A,4 | (C6 B,2 A,4 D,4) | G,4 E,4 F,8 | %72
w: te- mur in * * *|* * * e\-|* * a, et|lae- * * *|te- mur in|
 E,8 A,8 | z4 D,8 ^C,4 | D,4 (A,6 G,2 F,2 E,2 | D,4) ^C,4 D,8- | D,8 A,8- | A,16 |] %78
w: e- a,|et lae-|te- mur * * *|* in e\-|* a.||

